gruupUp/img/promo/line.svg

<svg width="138" height="3" viewBox="0 0 138 3" fill="none" xmlns="http://www.w3.org/2000/svg">
<path d="M61.0661 1.9523C61.4312 2.42683 62.1938 2.67939 63.5534 2.77711C71.8439 3.37149 132.941 2.67014 137.654 1.92616C140.96 1.40457 120.778 0.850804 69.318 0.0525339C56.2259 -0.150553 -3.85479 0.282165 0.195503 0.5504C0.916895 0.598256 10.0655 0.912333 20.5256 1.24853C30.9858 1.58473 40.7102 1.96275 42.1351 2.08863C44.5766 2.30378 44.766 2.26356 45.4124 1.39049C46.0934 0.470367 46.0949 0.47037 45.6007 1.36837L45.1028 2.27321L47.4388 2.27402C48.7237 2.27482 52.3718 2.39466 55.546 2.54064C61.2033 2.80124 61.3095 2.79118 60.9281 2.03715C60.5545 1.298 60.5598 1.29478 61.0661 1.9523Z" fill="url(#paint0_linear)"/>
<defs>
<linearGradient id="paint0_linear" x1="207" y1="1.5" x2="206.87" y2="7.49717" gradientUnits="userSpaceOnUse">
<stop stop-color="#FFB23F"/>
<stop offset="1" stop-color="#F97E26"/>
</linearGradient>
</defs>
</svg>

<svg width="138" height="3" fill="none" xmlns="http://www.w3.org/2000/svg"><path d="M61.066 1.952c.365.475 1.128.727 2.487.825 8.29.594 69.388-.107 74.101-.85C140.96 1.404 120.778.85 69.318.052 56.226-.151-3.855.283.196.55c.72.048 9.87.362 20.33.699 10.46.336 20.184.714 21.61.84 2.44.215 2.63.175 3.276-.699.681-.92.683-.92.189-.022l-.498.905 2.336.001c1.285 0 4.933.12 8.107.267 5.657.26 5.764.25 5.382-.504-.373-.739-.368-.742.138-.085z" fill="url(#paint0_linear)"/><defs><linearGradient id="paint0_linear" x1="207" y1="1.5" x2="206.87" y2="7.497" gradientUnits="userSpaceOnUse"><stop stop-color="#FFB23F"/><stop offset="1" stop-color="#F97E26"/></linearGradient></defs></svg>
